X:149
U: ~ = !turn!
%%topmargin 3cm
T:Old Grey Goose
B:Traditional Irish Fiddle Tunes. Randy Miller and Jack Perron.
S:Michael Coleman
Z:Transcribed by Ralph Palmer
R:Jig
M:6/8
L:1/8
K:G
EF |: GBG FAF | GEE D2F | DFA dAG | FDD DEF |
{/A}GFG AGA | {/c}BAB {/a}gfg | edB {/c}BAF | GEE E2F ::
G2G dBG | GAB/2c/2 dBG | A2A ecA | ABc/2d/2 ecA |
G2G dBG | dgf {/a}gfg | edB {/c}BAF | GEE E2B ::
efe edB | def g2a | fdd add | fag fed |
gfg efe | def {/a}gfg | edB {/c}BAF | GEE E2c ::
BGG AFF | GEE E2c |BGB dAG | FDD D2c |
BGG AFF | GEE {/a}gfg | edB {/c}BAF | GEE E2f ::
gbg faf | gee e2f | gbg faf | fdd def |
gbg faf | dgf {/a}gfg | edB {/c}BAF | GEE E2f ::
gdc BcA | GEE E2f | gdB dAG | FDD DEF |
{/A}GFG {/B}AGA | {/c}BAB {/a}gfg | edB {/c}BAF | GEE E2f :|]
